math-tan.svg

<svg fill="currentColor" viewBox="0 0 24 24"><path d="M2 7v2h2v8h2V9h2V7zm9 0a2 2 0 0 0-2 2v8h2v-4h2v4h2V9a2 2 0 0 0-2-2zm0 2h2v2h-2zm5-2v10h2v-5l2 5h2V7h-2v5l-2-5z"/></svg>

<svg  viewBox="0 0 24 24" fill="currentColor"><path  d="M2,7V9H4V17H6V9H8V7H2M11,7A2,2 0 0,0 9,9V17H11V13H13V17H15V9A2,2 0 0,0 13,7H11M11,9H13V11H11V9M16,7V17H18V12L20,17H22V7H20V12L18,7H16Z"/></svg>
